X:844
T:Reel 844
M:4/4
K:Gmin
L:1/8
dc|B2B>d  (3def |c>d (3GGG g>f (3fed |B>G (3GFG d>G (3GFG |cefd c2:||2d>B (3BBB A>B (3AGA |B>G (3GFG g2|fg|agag fgfd|c>A (3AFF A>c (3cBA |B>A (3AAf g>G (3GFG |A>F (3FGF G>g (3aba |b>g (3gfg f>g (3gfg |f>g (3gfg bgfd|cefd cAFA| (3BAB cA G2|
